public/assets/images/why-choose/03.svg

<svg width="46" height="46" viewBox="0 0 46 46" fill="none" xmlns="http://www.w3.org/2000/svg">
<path d="M38.7796 29.0289L30.9596 32.3325C30.9735 32.2349 30.9875 32.1373 30.9875 32.0328C30.9875 30.5134 29.7538 29.2798 28.2344 29.2798H22.6029C22.3729 29.2798 22.1499 29.231 21.9408 29.1334L17.1665 26.9728C16.4208 26.6382 15.5914 26.457 14.7759 26.457H10.8869V27.851H14.7759C15.3962 27.851 16.0235 27.9834 16.595 28.2413L21.3693 30.4019C21.7596 30.5761 22.1778 30.6667 22.6099 30.6667H28.2414C28.9941 30.6667 29.6005 31.2801 29.6005 32.0258C29.6005 32.7716 28.9872 33.3849 28.2414 33.3849H20.9441V34.7789H28.2344C28.7153 34.7789 29.1614 34.6464 29.5517 34.4304V34.4373L39.3162 30.3043C40.1247 29.9628 41.0099 29.9698 41.8114 30.3182C42.4247 30.5901 42.9266 31.0292 43.2611 31.6007L26.025 40.7449C24.7078 41.4419 23.1396 41.5813 21.7178 41.1282L13.2844 38.417L10.8799 38.3822V39.7761H12.9638L21.2926 42.4525C21.9826 42.6755 22.6935 42.7801 23.4114 42.7801C24.5405 42.7801 25.6696 42.5082 26.6732 41.9716L45.0384 32.2419L44.8363 31.6704C44.4111 30.4855 43.5329 29.5516 42.3759 29.0428C41.219 28.5479 39.9435 28.534 38.7796 29.0289Z" fill="#0F62FE"/>
<path d="M9.37434 40.8703V26.0736C9.37434 25.307 8.74707 24.6797 7.9804 24.6797H0.961914V26.0736H7.9804V40.8773H0.961914V42.2712H7.9804C8.74707 42.2642 9.37434 41.637 9.37434 40.8703Z" fill="#0F62FE"/>
<path d="M6.14745 38.7015C6.14745 39.2381 5.70836 39.6772 5.17169 39.6772C4.62806 39.6772 4.18896 39.2381 4.18896 38.7015C4.18896 38.1578 4.62806 37.7188 5.17169 37.7188C5.70836 37.7188 6.14745 38.1578 6.14745 38.7015Z" fill="#0F62FE"/>
<path d="M17.4523 19.8144L18.205 20.372L23.3905 17.5005L28.0811 20.3232L28.4853 20.5602L29.238 20.0166L28.1089 14.2038L32.2559 10.6075L32.5904 10.2869L32.2977 9.42262L26.4292 8.69777L24.2965 3.65171L24.1014 3.23353L23.6553 3.22656H23.1814L20.6792 8.6002L15.215 9.0602L14.748 9.11596L14.4692 9.98717L18.7974 14.0226L17.4523 19.8144ZM16.8598 10.3217L21.195 9.94535L21.6062 9.89656L23.6065 5.60323L25.3001 9.59687L25.4744 9.9802L30.1859 10.5587L26.9241 13.3884L26.5965 13.6672L27.5026 18.3369L23.7668 16.0857L23.4114 15.8975L19.2783 18.1905L20.2471 14.0087L20.3656 13.5766L16.8598 10.3217Z" fill="#0F62FE"/>
<path d="M8.287 17.2429L7.27639 21.585L7.137 22.0869L7.92457 22.6654L12.2667 20.2608L16.1 22.5608L16.5321 22.8326L17.3058 22.2681L16.3579 17.3963L17.3685 16.525L16.4555 15.4726L15.1103 16.6366L14.9082 16.8735V17.1523L15.5634 20.6163L12.7337 18.9087L12.5873 18.7693L11.9949 18.7554L11.8555 18.8947L8.96306 20.4978L9.74366 17.1105V16.6993L7.03245 14.1763L10.35 13.8835L10.6706 13.8766L10.9634 13.5838L12.4479 10.3917L13.7861 13.549L14.0021 13.9602H14.3925L16.0721 14.1693L16.2464 12.7823L14.9012 12.622L13.1309 8.4402L12.894 7.99414L11.9321 8.07081L11.7997 8.48202L9.91791 12.5314L5.48518 12.9147L4.93457 12.9426L4.64185 13.9602L5.02518 14.2111L8.287 17.2429Z" fill="#0F62FE"/>
<path d="M31.1965 12.6215L31.322 14.0085L32.6671 13.883L32.9808 13.8691L33.2735 13.5763L34.758 10.3842L36.0335 13.3882L36.0474 13.9527H36.7026L40.0271 14.3639L37.4414 16.6082L37.2114 16.8521V17.1518L37.8735 20.6088L35.0368 18.9081L34.8905 18.7618L34.2771 18.7688L34.1517 18.9012L31.2732 20.4972L32.0608 17.11L32.0538 16.6988L30.2695 15.033L29.3147 16.0506L30.5902 17.2424L29.5865 21.5845L29.4471 22.0515L30.2068 22.6788L34.5768 20.2603L38.4171 22.5672L38.8492 22.8321L39.6089 22.2606L38.6611 17.3957L42.0135 14.4894C42.2435 14.3082 42.3411 14.0015 42.2644 13.7227L42.1041 13.2278L37.2114 12.6285L35.4271 8.4327L35.218 8.04936L34.3886 8.02148L34.1726 8.363L32.2211 12.5309L31.1965 12.6215Z" fill="#0F62FE"/>
</svg>

<svg xmlns="http://www.w3.org/2000/svg" width="46" height="46" fill="none" viewBox="0 0 46 46"><path fill="#0f62fe" d="m38.78 29.029-7.82 3.304a2 2 0 0 0 .027-.3 2.754 2.754 0 0 0-2.753-2.753h-5.631q-.347 0-.662-.147l-4.774-2.16a5.9 5.9 0 0 0-2.391-.516h-3.89v1.394h3.89c.62 0 1.247.132 1.819.39l4.774 2.16c.39.175.809.266 1.24.266h5.632c.753 0 1.36.613 1.36 1.359s-.614 1.359-1.36 1.359h-7.297v1.394h7.29c.481 0 .927-.133 1.318-.349v.007l9.764-4.133a3.14 3.14 0 0 1 2.495.014 3.13 3.13 0 0 1 1.45 1.283l-17.236 9.144a5.6 5.6 0 0 1-4.307.383l-8.434-2.711-2.404-.035v1.394h2.084l8.329 2.676c.69.224 1.4.328 2.118.328 1.13 0 2.259-.272 3.262-.808l18.365-9.73-.202-.572a4.54 4.54 0 0 0-6.057-2.642M9.374 40.87V26.074c0-.767-.627-1.394-1.394-1.394H.962v1.394H7.98v14.803H.962v1.394H7.98a1.41 1.41 0 0 0 1.394-1.4"/><path fill="#0f62fe" d="M6.147 38.702a.979.979 0 1 1-1.957-.006.979.979 0 0 1 1.957.006m11.305-18.888.753.558 5.186-2.872 4.69 2.823.404.237.753-.543-1.13-5.813 4.148-3.597.334-.32-.292-.864-5.869-.725-2.132-5.046-.196-.418-.446-.007h-.474L20.68 8.6l-5.464.46-.467.056-.279.871 4.328 4.036zm-.592-9.492 4.335-.377.411-.048 2-4.294L25.3 9.597l.174.383 4.712.579-3.262 2.83-.328.278.907 4.67-3.736-2.251-.356-.188-4.133 2.293.97-4.182.118-.432z"/><path fill="#0f62fe" d="m8.287 17.243-1.01 4.342-.14.502.788.578 4.342-2.404 3.833 2.3.432.272.774-.565-.948-4.872 1.01-.871-.912-1.052-1.346 1.164-.202.236v.28l.655 3.463-2.83-1.707-.146-.14-.592-.014-.14.14-2.892 1.603.78-3.388v-.41l-2.71-2.524 3.317-.293.32-.006.293-.293 1.485-3.192 1.338 3.157.216.411h.39l1.68.21.174-1.388-1.345-.16-1.77-4.182-.237-.446-.962.077-.132.411-1.882 4.05-4.433.383-.55.028-.293 1.017.383.251zm22.91-4.621.125 1.386 1.345-.125.314-.014.292-.293 1.485-3.192 1.275 3.004.014.565h.656l3.324.41-2.586 2.245-.23.244v.3l.663 3.457-2.837-1.7-.146-.147-.614.007-.125.132-2.879 1.596.788-3.387-.007-.411-1.785-1.666-.954 1.018 1.275 1.191-1.003 4.342-.14.468.76.627 4.37-2.419 3.84 2.307.432.265.76-.571-.948-4.865 3.352-2.907a.73.73 0 0 0 .251-.766l-.16-.495-4.893-.6-1.784-4.195-.209-.384-.83-.028-.215.342-1.952 4.168z"/></svg>
